X:20
T:Einleitung und Ausgang zu den Steyrer Taenzen in C (->text)
C:traditionell
R:Steirer
A:Hallstatt, Salzkammergut
B:Corpus Musicae Popularis Austriacae (COMPA), 5.Band: J.M.Schmalnauer " Tanz Musik", Verlag Boehlau, Wien 1996
S:manuscript des Johann Michael Schmalnauer um 1820
N:im der quelle in G
Z:abc transcription Simon Wascher
F:http://simonwascher.info/TradArchiv/
M:3/4
L:1/8
K:G
P:Einleitung
%= intruduction (at the start of a set, originally at the beginning of each single melody)
V:1
%violino 1mo
c4 Bc | c4 Bc | c4 |
V:2
%violino 2do
[E4G,6] DE | [E4G,6] DE | [E4G,4] |
V:1
P:Ausgang
%= Coda (at the end of a set, replacing the last bar .Originally at the end of each single melody)
c2 c'2 c'2 | e'c'bc'd'b | c'2 e'2 d'2 | c'4 Bc | c4 |
V:2
[e2E2] e2 e2 | gedefd | e2 g2 f2 | e4 DE | [E4G,4] |
